svgs/light/cookie-bite.svg

<svg xmlns="http://www.w3.org/2000/svg" viewBox="0 0 512 512"><!-- Font Awesome Pro 6.0.0-alpha2 by @fontawesome - https://fontawesome.com License - https://fontawesome.com/license (Commercial License) --><path d="M184.012 192C184.012 178.75 173.262 168 160.012 168S136.012 178.75 136.012 192S146.762 216 160.012 216S184.012 205.25 184.012 192ZM288.012 232C274.762 232 264.012 242.75 264.012 256S274.762 280 288.012 280S312.012 269.25 312.012 256S301.262 232 288.012 232ZM192.012 328C178.762 328 168.012 338.75 168.012 352S178.762 376 192.012 376S216.012 365.25 216.012 352S205.262 328 192.012 328ZM352.012 328C338.762 328 328.012 338.75 328.012 352S338.762 376 352.012 376S376.012 365.25 376.012 352S365.262 328 352.012 328ZM494.605 255.883C428.978 255.062 376.008 201.742 376.008 136C310.266 136 256.943 83.031 256.24 17.406C250.029 16.469 243.701 16 237.49 16C218.154 16 198.935 20.57 181.475 29.477L116.668 62.406C93.348 74.359 74.363 93.344 62.408 116.664L29.596 181.234C17.643 204.672 13.424 231.156 17.525 257.172L28.893 328.656C32.994 354.555 45.182 378.461 63.697 396.977L115.027 448.422C133.543 466.82 157.332 479.008 183.232 483.109L255.068 494.477C261.514 495.531 268.076 496 274.521 496C293.859 496 313.195 491.43 330.656 482.523L395.463 449.477C418.783 437.641 437.767 418.656 449.603 395.336L482.533 330.766C494.254 307.68 498.473 281.43 494.605 255.883ZM454.025 316.227L421.068 380.854C412.365 398 398.129 412.238 380.926 420.969L316.115 454.018C303.312 460.547 288.93 464 274.521 464C269.517 464 264.711 463.629 260.07 462.869L188.238 451.502C169.008 448.457 151.492 439.543 137.68 425.82L86.324 374.348C72.49 360.516 63.56 342.984 60.496 323.631L49.135 252.187C46.076 232.783 49.176 213.273 58.123 195.73L90.885 131.262C99.838 113.797 113.801 99.834 131.164 90.934L196.016 57.982C205.91 52.936 216.723 49.727 227.74 48.529C240.641 107.27 287.791 153.527 346.85 165.162C358.496 224.166 404.73 271.348 463.443 284.332C462.244 295.428 459.064 306.305 454.025 316.227Z"/></svg>

<svg xmlns="http://www.w3.org/2000/svg" viewBox="0 0 512 512"><!--! Font Awesome Pro 6.3.0 by @fontawesome - https://fontawesome.com License - https://fontawesome.com/license (Commercial License) Copyright 2023 Fonticons, Inc. --><path d="M184 192c0-13.25-10.75-24-24-24s-24 10.75-24 24s10.75 24 24 24S184 205.3 184 192zM288 232c-13.25 0-24 10.75-24 24s10.75 24 24 24s24-10.75 24-24S301.3 232 288 232zM192 328c-13.25 0-24 10.75-24 24s10.75 24 24 24s24-10.75 24-24S205.3 328 192 328zM352 328c-13.25 0-24 10.75-24 24s10.75 24 24 24s24-10.75 24-24S365.3 328 352 328zM494.6 255.9c-65.63-.8203-118.6-54.14-118.6-119.9c-65.74 0-119.1-52.97-119.8-118.6C250 16.47 243.7 16 237.5 16c-19.34 0-38.54 4.573-56 13.48L116.7 62.41C93.35 74.36 74.36 93.35 62.41 116.7L29.6 181.2C17.64 204.7 13.42 231.2 17.53 257.2l11.37 71.48c4.102 25.9 16.29 49.8 34.81 68.32l51.36 51.39c18.52 18.4 42.27 30.64 68.18 34.75l71.84 11.37C261.5 495.5 268 496 274.5 496c19.34 0 38.71-4.573 56.17-13.48l64.81-33.05c23.32-11.84 42.31-30.82 54.14-54.14l32.93-64.57C494.3 307.7 498.5 281.4 494.6 255.9zM454 316.2l-32.96 64.63c-8.703 17.15-22.94 31.38-40.14 40.12l-64.81 33.05C303.3 460.5 288.9 464 274.5 464c-5.004 0-9.811-.3711-14.45-1.131l-71.83-11.37c-19.23-3.045-36.75-11.96-50.56-25.68l-51.36-51.47c-13.83-13.83-22.76-31.36-25.83-50.72l-11.36-71.44C46.08 232.8 49.18 213.3 58.12 195.7l32.76-64.47C99.84 113.8 113.8 99.83 131.2 90.93l64.85-32.95c9.895-5.047 20.71-8.256 31.72-9.453c12.9 58.74 60.05 104.1 119.1 116.6c11.65 59 57.88 106.2 116.6 119.2C462.2 295.4 459.1 306.3 454 316.2z"/></svg>
